src/client/images/icons/password-icon.svg

<svg width="100%" height="100%" viewBox="0 0 20 21" fill="none" xmlns="http://www.w3.org/2000/svg">
<path d="M15 9.5V6.5C15 3.73858 12.7614 1.5 10 1.5C7.23858 1.5 5 3.73858 5 6.5V9.5M5.8 19.5H14.2C15.8802 19.5 16.7202 19.5 17.362 19.173C17.9265 18.8854 18.3854 18.4265 18.673 17.862C19 17.2202 19 16.3802 19 14.7V14.3C19 12.6198 19 11.7798 18.673 11.138C18.3854 10.5735 17.9265 10.1146 17.362 9.82698C16.7202 9.5 15.8802 9.5 14.2 9.5H5.8C4.11984 9.5 3.27976 9.5 2.63803 9.82698C2.07354 10.1146 1.6146 10.5735 1.32698 11.138C1 11.7798 1 12.6198 1 14.3V14.7C1 16.3802 1 17.2202 1.32698 17.862C1.6146 18.4265 2.07354 18.8854 2.63803 19.173C3.27976 19.5 4.11984 19.5 5.8 19.5Z" stroke-width="2" stroke-linecap="round" stroke-linejoin="round"/>
</svg>

<svg width="20" height="21" fill="none" xmlns="http://www.w3.org/2000/svg"><path d="M15 9.5v-3a5 5 0 0 0-10 0v3m.8 10h8.4c1.68 0 2.52 0 3.162-.327a3 3 0 0 0 1.311-1.311C19 17.22 19 16.38 19 14.7v-.4c0-1.68 0-2.52-.327-3.162a3 3 0 0 0-1.311-1.311C16.72 9.5 15.88 9.5 14.2 9.5H5.8c-1.68 0-2.52 0-3.162.327a3 3 0 0 0-1.311 1.311C1 11.78 1 12.62 1 14.3v.4c0 1.68 0 2.52.327 3.162a3 3 0 0 0 1.311 1.311c.642.327 1.482.327 3.162.327Z" stroke="#FAFAFA" stroke-width="2" stroke-linecap="round" stroke-linejoin="round"/></svg>
